X:1
T:Star Wars Medley
T:Star Wars Medley
T:John Williams
T:Arr. Nicoletta Cleto
C:John Williams
%%score { ( 1 3 ) | 2 }
L:1/8
Q:1/4=111
M:4/4
K:G
V:1 treble nm="Klavier" snm="Klav."
V:3 treble 
V:2 bass 
V:1
!f!"^Star Wars Main Theme" (3DDD | [B,DG]4 [GBd]4 | (3[EGc]BA [Bdg]4 [GBd]2 | %3
 (3[EGc]BA [Bdg]4 [GBd]2 | (3[=FAc]Bc [D^FA]4 (3:2:2D2 D | [B,DG]4 [GBd]4 | %6
 (3[EGc]BA [Bdg]4 [GBd]2 | (3[EGc]BA [Bdg]4 [GBd]2 | (3[=FAc]Bc [D^FA]4 (3:2:2D2 D | %9
 [G,CE]3 E [EGc]BAG | (3[EG]AB (3:2:2A2 E [A,DF]2 (3:2:2D2 D | [G,CE]3 E [EGc]BAG | %12
 [=F_Bd]>A [D^FA]4 (3:2:2D2 D | [G,CE]3 E [EGc]BAG | (3[CEG]AB (3:2:2[CEA]2 E F2 (3:2:2d2 d | %15
 (3:2:2[Gc_eg]2 [Gc=f] (3:2:2[Gce]2 [Gd] (3:2:2[Gc]2 _B (3:2:2A2 G | [Dd]6 z2 || %17
[K:F][Q:1/4=76]!p! z2 A4 G2 | A4 D2 E2 | z2 A4 G2 | A4 D2 [EA]2 | [Adf]6 d2 | %22
[M:3/4] (3[Bdg]fe [Adf]2 d2 | (3[Af]ed [Ace]2 c2 | [FBd]4 [Ec]2 | [CFA]4 [^CEA]2 | [Adf]4 [Fd]2 | %27
 (3[GBd]ef [Bdg]2 e2 | [dfa]2 [B_eg]4 | [dfa]4 G,2 || %30
[K:Eb][M:4/4]"^May The Force Be With You" C4 [A,D]3 [=B,E]/F/ | [CE]4 G,3 G, | C3 D EG, (3ECG | %33
 F6 [F,G,]2 | C3 D E>G, G>E | [Ec]4 C2 (3EDC | G2 (3GEC G,2 G,>G, | C6 z2 || %38
[K:F]"^Cantina Band"!mf![Q:1/4=220] A2 d2 A2 d2 | A d2 A- A^G A2 | A^GA=G z ^FGF | F3 D- D2 z2 | %42
 A2 d2 A2 d2 | G2 G2- G^F G2 | c2 B2 A2 G2 | A2 d2 A2 d2 | A d2 A- A^G A2 | c2 c2- cA G2 | %48
 F3 D- D4 |!mp! D4 F4 | A4 c4 |!f! _e2 d2 ^G A3 | F8 || %53
[K:D]!mf!"^Princess Leia's Theme"[Q:1/4=72] cdBc _B=cAd | cdBc _B=cAg | fgef _e=fdg | fg_ef d3 A | %57
 Af f4- ff | gg/f/ e6 | Af f4- fa | _bb/a/ g6 | _B_b b4- bb | c'b/^a/ ^g4- gg | %63
 _c'_b/_a/ _g2- g=f/g/ ag/a/ | _b4 =f3 f | _ba/g/ =f2- fe/f/ gf/g/ | a4 [Ee]AcE- | E8 || %68
[K:C]!mp!"^Rey's Theme"[Q:1/4=100] Ac/A/ A2 Ac/A/ EG/E/ | Ac/A/ A2 Ac/A/ EG/E/ | %70
 Ac/A/ A2 Ac/A/ EG/E/ | Ac/A/ A2 Ac/A/ EG/E/ | A2 E,G,/E,/ A,2 EG/E/ | A2 eg/e/ a2 z2 || %74
!p!"^Yoda's Theme"[Q:1/4=60] z8 | z4 z2 G2 | G4 C2 A2 | ^F8 | G2 E2 C2 B>A | A8 | G2 E2 C2 B2 | %81
 A2 F2 D2 [_Adf]2 |!mp! [GBe]8- | [GBe]4 z A (3^GAB | c4 E2 A2 | ^F8 | B2 G2 E2 d2 | ^c8 | %88
 d2 B2 ^F2 ^f2 | e2 c2 A2 g2 | ^f8 |!<(! [D^F]2 GA Bcde!<)! | f/!mf!f/f- f2 z ece | %93
 f/f/f- fe c/c/c- c2 | f/f/f- f2 z ece | f/f/f- fe c/c/c- c2 |!f! g/g/g- g2 z ^fdf | %97
 g/g/g- g^f d/d/d- d2 | a/a/a- a2 z c'af | de/d/ B4 z2 || %100
[K:Bb]!f!"^The Imperial March"[Q:1/4=100] [B,DG]2 [B,DG]2 [B,DG]2 [_G,B,E]>B | %101
 [B,DG]2 [_G,B,E]>B [B,DG]4 | [GBd]2 [GBd]2 [GBd]2 [_GBe]>B | [B,E_G]2 [_G,B,E]>B [B,D=G]4 | %104
 [GBdg]2 G>G [GBdg]2 [GBd^f]>f | [^G^c=e]/d/[Gce] z G [^CEG^c]2 [CEG^B]>=B | %106
 [E_GB]/A/[EGB] z E [B,EG]2 [_G,B,E]>G | [DGB]2 [B,G]>B [GBd]4 | [GBeg]2 G>G [GBdg]2 [GBd^f]>f | %109
 [^G^c=e]/d/[Gce] z G [^CEG^c]2 [CEG^B]>=B | [E_GB]/A/[EGB] z E [B,EG]2 [_G,B,E]>G | %111
 [B,DG]2 [_G,B,E]>B [B,DG]4 ||[K:G]!f!"^Duel of the Fates" [EGB] [EGB]3- [EGB]4 | %113
 [AB] [FB]3- [FB]4 | [GBe] [GBe]3- [GBe]4 | (3[ABf][G_ce][Gce]- [Gce]6 | %116
[Q:1/4=152] G,A, G,/F,/E, G,A, G,/F,/E, | G,A, G,/F,/E, G,A, G,/F,/E, | %118
 G,A, G,/F,/E, G,A, G,/F,/E, | G,A, G,/F,/E, G,A, G,/F,/E, | G,A, G,/F,/E, G,A, G,/F,/E, | %121
 G,A, G,/F,/E, G,A, G,/F,/E, | z2 EF G2 A2 | B,2 A2 GF E2 | z2 EF G2 A2 | B,2 A2 GF E2 | %126
 z2 ^DE F2 G2 | A,2 B2 AG F2 | z2 ^DE F2 G2 | A,2 G2 FE ^D2- | D8 || %131
[K:F][M:6/4]!mf!"^Battle of Heroes" D4- D3 E F4 | F6 E6 | C6 E6 | E6 D6 | %135
[M:4/4][K:bass] D,A,^C,D, F,A,C,D, | F,B,^C,D, F,B,C,D, | F,A,^C,D, F,A,C,D, | %138
[K:treble] F,B,DF Bdfb |[M:6/4] [dfad']6 [Ee]2 [FAdf]4 | [FBdf]6 [EBde]6 | [E=Bc]6 [EBe]6 | %142
 [EGe]6 [DFd]6 ||[M:4/4]!f!"^The Throne Room"[Q:1/4=120] C4 C4 | C2 C2 CC (3CCC | E4 E4 | %146
 E2 E2 EE (3EEE | [EG]4 [EG]4 | [EG]2 [EG]2 [EG][EG] (3[EG][EG][EG] |!ff! [GB]6 (3BBB | %150
 [G=B]6 (3BBB | [FGc]4 [EGc] z C>C |!f! F4 G2- (3G_AB | _A4 C3 C | F3 G _AC (3AFc | B6 C>C | %156
 F3 G _A>F c>A | f4 F2 (3_AGF | c2- (3c_AF C2 C>C | F6[Q:1/4=108] (3DDD ||[K:G] [B,DG]4 [GBd]4 | %161
 (3[EGc]BA [Bdg]4 [GBd]2 | (3[EGc]BA [Bdg]4 [GBd]2 | (3[=FAc]Bc [D^FA]4 (3:2:2D2 D | %164
 [B,DG]4 [GBd]4 | (3[EGc]BA [Bdg]4 [GBd]2 | (3[EGc]BA [Bdg]4 [GBd]2 | %167
 (3[=FAc]Bc [D^FA]4 z3/2 [_Bdf]/ ||[K:C] [_Bdf]4 [G=Bd]2 z3/2 [_Bdf]/ | %169
 [_Bdf]4 [G=Bd]2 z3/2 [_df_a]/ | [_df_a]6 [ceg]a/g/ | [_Bdf] [G=Bd]3- [GBd]4- | %172
 [GBd]6 z3/2 [_Bdf]/ | [_Bdf]4 [G=Bd]2 z3/2 [_Bdf]/ | [_Bdf]4 [G=Bd]2 z3/2 [_df_a]/ | [_df_a]8- | %176
 [dfa]6 [ceg]_a/g/ | [_Bdf] [G=Bd]3- [GBd]4- | [GBd]8 | c/B/A/G/ c/B/A/G/ c/B/A/G/ f/e/d/c/ | %180
 c/B/A/G/ c/B/A/G/ c/B/A/G/ f/e/d/c/ | c/B/A/G/ c/B/A/G/ c/B/A/G/ f/e/d/c/ | %182
 c/B/A/G/ c/B/A/G/ f/e/d/c/ (3DDD | [B,DG]4 [GBd]4 | (3[EGc]BA [Bdg]4 [GBd]2 | %185
 (3[EGc]BA [Bdg]4 [GBd]2 | (3[FAc]Bc [D^FA]4 (3:2:2D2 D | [B,DG]4 [GBd]4 | %188
 (3[EGc]BA [Bdg]4 [GBd]2 | (3[EGc]BA [Bdg]4 [GBd]2 | (3[FAc]Bc [D^FA]4 [Dd]2 | [Bdg]8- | %192
 [Bdg]6 (3[Bdg][Bdg][Bdg] | [Bdg] z z2 z4 |] %194
V:2
 z2 | G,,2 F,,2 E,,2 D,,2 | C,,2 B,,,2 A,,,2 G,,,2 | C,,2 B,,,2 A,,,2 G,,,2 | %4
 =F,,2 D,,2 [D,,D,]2 z2 | G,,2 F,,2 E,,2 D,,2 | C,,2 B,,,2 A,,,2 G,,,2 | C,,2 B,,,2 A,,,2 G,,,2 | %8
 =F,,2 D,,4 D,,2 | z2 D,,4 D,,2- | D,,2 D,,4 D,,2 | D,,2 D,,4 D,,2 | [_B,,,_B,,]2 D,,4 D,,2- | %13
 D,,2 D,,4 D,,2- | D,,2 D,,4 D,,2 | %15
 (3:2:2A,,,2 B,,, (3:2:2C,,2 D,, (3:2:2_E,,2 =F,, (3:2:2G,,2 A,, | D,6 z2 || %17
[K:F]"^Across The Stars" (3(D,F,A, (3D,F,A, (3D,F,A,) (3(D,F,A,) | %18
 (3(D,F,A, (3D,F,A, (3D,F,A,) (3(D,F,A,) | (3(D,F,A, (3D,F,A, (3D,F,A,) (3(D,F,A,) | %20
 (3(D,F,A, (3D,F,A, (3D,F,A,) (3(D,F,A,) | (3(D,F,A, (3D,F,A, (3D,F,A,) (3(D,F,A,) | %22
[M:3/4] (3D,G,B, (3D,F,A, (3D,F,A, | (3D,F,A, (3E,A,C (3E,A,C | (3F,B,D (3F,B,D (3A,,E,C | %25
 (3F,,C,A, (3F,A,C (3E,,^C,A, | (3D,,A,,F, (3D,F,A, (3D,F,A, | (3B,,G,B, (3G,B,D (3G,B,D | %28
 (3A,,F,D (3_E,,B,,G, (3_E,G,B, |!mf! [D,,A,,]6 ||[K:Eb][M:4/4] C,,G,,C,E, F,D,C,G,, | %31
 C,,G,,C,E, D,C,=B,,G,, | C,,G,,C,E, G,E,C,G,, | F,,C,F,=A, C2 D,G,, | C,,G,,C,E, G,E, B,,2 | %35
 A,,C,E,A,- A,2 A,,2 | G,,B,,E,G, [G,,C,F,]2 =B,,2 | [C,,C,]6 z2 ||[K:F] D,2 [F,A,]2 A,,2 [F,A,]2 | %39
 D,2 [F,A,]2 A,,2 [F,A,]2 | D,2 [F,A,]2 C,2 [E,G,]2 | D,2 C,2 B,,2 A,,2 | %42
 D,2 [F,A,]2 A,,2 [F,A,]2 | G,,2 [F,G,]2 B,,2 [F,G,]2 | C,2 D,2 ^D,2 E,2 | %45
 D,2 [F,A,]2 A,,2 [F,A,]2 | D,2 [F,A,]2 A,,2 [F,A,]2 | C,2 [E,G,]2 G,,2 [E,G,]2 | %48
 D,2 [F,A,]2 A,,2 [F,A,]2 | B,,2 [D,F,]2 =B,,2 [F,_A,]2 | C,2 [F,A,]2 D,2 [^F,A,]2 | %51
 [G,,F,]2 z2 [C,B,]2 z2 | [D,,D,]8 ||[K:D] A,,8- | A,,8 | A,8- | A,8 | D,A,DE F2 G2 | %58
 D,G,_B,D G2 _BA | D,A,DE F2 G2 | D,G,_B,D G2 _BB | _E,_B,_EF G2 _B2 | E,B,EF ^G2 B2 | %63
 _B,_E_G_B GEB,_E, | _B,,=F,_B,D =FD=B, z | G,,D,G,_B, DG_BD | A,,E,A,C z4 | z8 ||[K:C] z8 | z8 | %70
 z4 z2 z E, | A,2 A,,2 z2 z E,, | A,,2 z2 z4 | z8 || C,,G,,C,G,, E,4 | C,,G,,C,G,, E,4 | %76
 C,,G,,C,G,, E,2 C,2 | C,,A,,D,A,, ^F,2 D,2 | C,,G,,C,G,, E,2 C,2 | C,,A,,D,A,, ^F,2 D,2 | %80
 C,,G,,C,G,, E,2 C,2 | C,,A,,D,A,, F,2 G,,2 | C,,G,,C,G,, E,4 | C,,G,,C,G,, E,4 | A,,E,A,E, C4 | %85
 B,,^F,B,F, B,,4 | E,,B,,E,B,, G,2 E,2 | ^F,,^C,^F,C, F,,4 | B,,^F,B,F, D2 B,2 | A,,E,A,E, C2 A,2 | %90
 B,,^F,B,F, ^D2 B,2 | [D,C]2 z2 z4 | [C,F,A,]4 [C,E,G,]4 | [C,F,A,]4 [C,E,G,]2 C,,2 | %94
 [C,F,A,]4 [C,E,G,]4 | [C,F,A,]4 [C,E,G,]2 C,,2 | [B,,E,G,]4 [B,,D,^F,]4 | %97
 [B,,E,G,]4 [B,,D,^F,]2 B,,,2 | [C,F,A,]2 F,,>F,, F,,2 z2 | [_B,,F,]2 [G,,D,]4 z2 || %100
[K:Bb] G,,2 G,,2 G,,2 E,,2 | G,,2 E,,2 G,,2 G,,2 | G,,2 G,,2 G,,2 E,,2 | E,,2 E,,2 G,,2 G,,2 | %104
 G,,2 G,,2 G,,2 G,,2 | ^C,,2 C,,2 C,,2 C,,2 | E,,2 E,,2 E,,2 E,,2 | G,,2 E,,2 G,,2 G,,2 | %108
 E,,2 E,,2 G,,2 G,,2 | ^C,,C,C,,C, C,,C,C,,C, | E,,E,E,,E, E,,E,E,,E, | G,,2 C,,2 G,,2 G,,2 || %112
[K:G] [G,B,] [G,B,]3- [G,B,]4 | [A,B,] [F,B,]3- [F,B,]4 | [B,E] [B,E]3- [B,E]4 | %115
 (3[A,B,F][C_E][CE]- [CE]6 |!mp! E,, z z2 z4 | z8 | E,,G,, z2 z4 | z4 z2 z E,, | ^D,,F,,E,,G,, z4 | %121
 z8 | E,, z z2 z4 | z8 | E,,G,, z2 z4 | z8 | E,,E,, z2 z4 | z4 z E,, z2 | ^D,,F,,E,,G,, z4 | z8 | %130
 z8 ||[K:F][M:6/4] D,A,^C,D,F,A, C,D,F,A,C,D, | F,A,^C,D,F,B, C,D,F,B,C,D, | %133
 F,A,^C,D,F,B, C,D,F,B,C,D, | F,A,^C,D,F,B, C,D,F,B,C,D, |[M:4/4] D,,4 D,,4 | D,,4 D,,4 | %137
 D,,4 D,,4 | D,,4 D,,4 |[M:6/4] [D,,D,]4 [D,,D,]4 [D,,D,]4 | [D,,D,]4 [D,,D,]4 [D,,D,]4 | %141
 [D,,D,]4 [D,,D,]4 [D,,D,]4 | [D,,D,]4 [D,,D,]8 ||[M:4/4] z8 | z8 | C4 C4 | C2 C2 CC (3CCC | %147
 C4 C4 | C2 C2 CC (3CCC | [B,_E]8 | [G,D]8 | C2 (3C,C,C, C, z z2 | z2 [F,_A,C]2 z2 [E,B,C]2 | %153
 z2 [F,_A,C]2 z2 [C,G,B,]2 | z2 [F,_A,C]2 z2 [F,_A,C]2 | z2 (3[F,B,D][F,B,D][F,B,D] [F,B,D]2 z2 | %156
 z2 [F,_A,C]2 z2 [F,_A,C]2 | z2 (3[F,_A,_D][F,A,D][F,A,D] [F,A,D]2 z2 | z2 [F,_A,C]2 z2 [E,G,B,]2 | %159
 z8 ||[K:G] G,,2 F,,2 E,,2 D,,2 | C,,2 B,,,2 A,,,2 G,,,2 | C,,2 B,,,2 A,,,2 G,,,2 | %163
 =F,,2 D,,2 [D,,D,]2 z2 | G,,2 F,,2 E,,2 D,,2 | C,,2 B,,,2 A,,,2 G,,,2 | C,,2 B,,,2 A,,,2 G,,,2 | %167
 =F,,2 D,,2 [D,,D,]2 z2 ||[K:C] z2 [G,,G,]4 [G,,G,]2- | [G,,G,]2 [G,,G,]4 [G,,G,]2- | %170
 [G,,G,]2 [G,,G,]2 [G,,G,]2 [G,,G,]2 | [C,,C,]2 [C,,C,]2 [C,,C,]2 [C,,C,]2 | %172
 [C,,C,]2 [C,,C,]2 [C,,C,]2 [C,,C,]2 | [C,,C,]2 [C,,C,]2 [C,,C,]2 [C,,C,]2 | %174
 [C,,C,]2 [C,,C,]2 [C,,C,]2 [C,,C,]2 | [C,,C,]2 [C,,C,]2 [C,,C,]2 [C,,C,]2 | %176
 [C,,C,]2 [C,,C,]2 [C,,C,]2 [C,,C,]2 | [C,,C,]2 [C,,C,]2 [C,,C,]2 [C,,C,]2 | %178
 [C,,C,]2 [C,,C,]2 [C,,C,]2 [C,,C,]2 | [C,E,B,] z [C,E,G,C] z z [C,F,A,C] z [C,F,A,C] | %180
 z [C,E,C] z [C,E,G,C] [C,F,A,C] z [C,F,A,C] z | [C,E,B,] z [C,E,G,C] z z [C,F,A,C] z [C,F,A,C] | %182
 z [C,E,C] z [C,E,G,C] [C,F,A,C] z (3[D,,G,,][D,,G,,][D,,G,,] | G,,2 ^F,,2 E,,2 D,,2 | %184
 C,,2 B,,,2 A,,,2 G,,,2 | C,,2 B,,,2 A,,,2 G,,,2 | F,,2 D,,2 [D,,D,]2 z2 | G,,2 ^F,,2 E,,2 D,,2 | %188
 C,,2 B,,,2 A,,,2 G,,,2 | C,,2 B,,,2 A,,,2 G,,,2 | F,,2 D,,2 [D,,D,]2 D,,2 | G,,2 F,,2 E,,2 D,,2 | %192
 C,,2 B,,,2 A,,,2 D,,2 | [G,,,G,,] z z2 z4 |] %194
V:3
 x2 | x8 | x8 | x8 | x8 | x8 | x8 | x8 | x8 | x8 | x8 | x8 | x8 | x8 | x8 | x8 | x8 ||[K:F] x8 | %18
 x8 | x8 | x8 | x8 |[M:3/4] x6 | x6 | x6 | x6 | x6 | x6 | x6 | x6 ||[K:Eb][M:4/4] x8 | x8 | x8 | %33
 x8 | x8 | x8 | x8 | x8 ||[K:F] x8 | x8 | x8 | x8 | x8 | x8 | x8 | x8 | x8 | x8 | x8 | x8 | x8 | %51
 x8 | x8 ||[K:D] x8 | x8 | x8 | x8 | x8 | x8 | x8 | x8 | x8 | x8 | x8 | x8 | x8 | x8 | x8 || %68
[K:C] x8 | x8 | x8 | x8 | x8 | x8 || x8 | x8 | x8 | x8 | x8 | x8 | x8 | x8 | x8 | x8 | x8 | %85
 E4 ^D4 | x8 | B4 ^A4 | x8 | x8 | e4 ^d4 | x8 | x8 | x8 | x8 | x8 | x8 | x8 | x8 | x8 ||[K:Bb] x8 | %101
 x8 | x8 | x8 | x8 | x8 | x8 | x8 | x8 | x8 | x8 | x8 ||[K:G] x8 | x8 | x8 | x8 | x8 | x8 | x8 | %119
 x8 | x8 | x8 | x8 | x8 | x8 | x8 | x8 | x8 | x8 | x8 | x8 ||[K:F][M:6/4] x12 | x12 | x12 | x12 | %135
[M:4/4][K:bass] x8 | x8 | x8 |[K:treble] x8 |[M:6/4] x12 | x12 | x12 | x12 ||[M:4/4] x8 | x8 | x8 | %146
 x8 | x8 | x8 | x8 | x8 | x8 | x8 | x8 | x8 | x8 | x8 | x8 | x8 | x8 ||[K:G] x8 | x8 | x8 | x8 | %164
 x8 | x8 | x8 | x8 ||[K:C] x8 | x8 | x8 | x8 | x8 | x8 | x8 | x8 | x8 | x8 | x8 | x8 | x8 | x8 | %182
 x8 | x8 | x8 | x8 | x8 | x8 | x8 | x8 | x8 | x8 | x8 | x8 |] %194

